assets/images/footer-pinterest.svg

<svg width="28" height="28" viewBox="0 0 28 28" fill="none" xmlns="http://www.w3.org/2000/svg">
<path d="M0.172852 13.9136C0.172852 19.632 3.73094 24.5176 8.75216 26.485C8.63408 25.4175 8.52878 23.7789 8.80002 22.611C9.04414 21.5579 10.3828 15.9016 10.3828 15.9016C10.3828 15.9016 9.97914 15.0927 9.97914 13.8976C9.97914 12.0196 11.0657 10.6188 12.4219 10.6188C13.5723 10.6188 14.1292 11.4835 14.1292 12.5207C14.1292 13.679 13.392 15.4102 13.0107 17.0153C12.6932 18.3604 13.6856 19.4549 15.0099 19.4549C17.4096 19.4549 19.2541 16.9244 19.2541 13.2722C19.2541 10.0396 16.9326 7.78026 13.6154 7.78026C9.77491 7.78026 7.52039 10.6618 7.52039 13.6391C7.52039 14.7991 7.96555 16.0436 8.52399 16.7202C8.63408 16.8542 8.65004 16.9707 8.61813 17.1079C8.51601 17.5339 8.28785 18.4513 8.24317 18.638C8.18414 18.8853 8.04692 18.938 7.79004 18.8199C6.10513 18.0349 5.05206 15.5682 5.05206 13.5897C5.05206 9.33114 8.14585 5.41883 13.9712 5.41883C18.6542 5.41883 22.2936 8.75674 22.2936 13.2163C22.2936 17.869 19.3594 21.6137 15.2891 21.6137C13.9202 21.6137 12.6341 20.9021 12.1938 20.0628C12.1938 20.0628 11.5173 22.6397 11.3529 23.2715C11.0482 24.4442 10.2249 25.9138 9.67598 26.8105C10.9381 27.203 12.2799 27.4136 13.6729 27.4136C21.1289 27.4136 27.1729 21.3696 27.1729 13.9136C27.1729 6.45595 21.1289 0.413574 13.6729 0.413574C6.21682 0.413574 0.172852 6.45595 0.172852 13.9136Z" fill="white"/>
</svg>

<svg xmlns="http://www.w3.org/2000/svg" width="28" height="28" fill="none"><path fill="#fff" d="M.173 13.914c0 5.718 3.558 10.604 8.58 12.571-.119-1.067-.224-2.706.047-3.874.244-1.053 1.583-6.71 1.583-6.71s-.404-.808-.404-2.003c0-1.878 1.087-3.28 2.443-3.28 1.15 0 1.707.865 1.707 1.903 0 1.158-.737 2.89-1.118 4.494-.318 1.345.675 2.44 1.999 2.44 2.4 0 4.244-2.53 4.244-6.183 0-3.232-2.321-5.492-5.639-5.492-3.84 0-6.095 2.882-6.095 5.86 0 1.16.446 2.404 1.004 3.08.11.134.126.25.094.388-.102.426-.33 1.343-.375 1.53-.059.247-.196.3-.453.182-1.685-.785-2.738-3.252-2.738-5.23 0-4.259 3.094-8.171 8.92-8.171 4.682 0 8.322 3.338 8.322 7.797 0 4.653-2.935 8.398-7.005 8.398-1.369 0-2.655-.712-3.095-1.551 0 0-.677 2.577-.841 3.209-.305 1.172-1.128 2.642-1.677 3.539 1.262.392 2.604.603 3.997.603 7.456 0 13.5-6.044 13.5-13.5 0-7.458-6.044-13.5-13.5-13.5s-13.5 6.042-13.5 13.5Z"/></svg>
